data/tac-one.svg

<svg width="38.766" height="14.42" viewBox="0 0 38.766 14.42" xmlns="http://www.w3.org/2000/svg"><path transform="translate(0 11.62) scale(.014 -.014)" d="M130 0V436H10V554H430L398 436H298V0Z"/><path transform="translate(6.02 11.62) scale(.014 -.014)" d="m72 0q-33 27-45.5 65.5t-12.5 73.5q0 43 15 83t43 59h179q-8 35-22 64t-33 53v2h199q14-22 24.5-67.5t10.5-92.5v-240zm187 33v172q0 11-0.5 20.5t-1.5 18.5q-28-13-50-38.5t-22-63.5q0-33 18.5-64t55.5-45z"/><path transform="translate(12.474 11.62) scale(.014 -.014)" d="m83 0q-27 37-45 87.5t-18 114.5q0 61 13 108t40 90h212v-1q-44-46-68-93t-24-106q0-58 28-106.5t74-91.5v-2z"/><path transform="translate(18.228 11.62) scale(.014 -.014)" d="m89 0q-34 67-48.5 133.5t-14.5 142.5q0 81 15 152t47 126h345q35-66 48.5-132.5t13.5-143.5q0-82-14.5-154.5t-46.5-123.5zm177 32q28 52 41 112t13 129-12.5 129-47.5 114q-59-106-59-239 0-70 15.5-130.5t49.5-114.5z"/><path transform="translate(25.522 11.62) scale(.014 -.014)" d="m39 0v400h366q27-31 42.5-84.5t15.5-115.5v-200h-171v189q0 68-21.5 110t-60.5 67v-366z"/><path transform="translate(32.438 11.62) scale(.014 -.014)" d="m66 0q-14 22-24.5 68t-10.5 92v240h358q33-27 45.5-65t12.5-79q0-37-15-77t-43-60h-179q8-36 22.5-65t33.5-52l-1-2zm139 150q33 15 52 42.5t19 67.5q0 31-18.5 62.5t-55.5 44.5v-172q0-24 3-45z"/></svg>

<?xml version="1.0" encoding="utf-8" ?>
<svg baseProfile="tiny" height="100%" version="1.2" width="100%" xmlns="http://www.w3.org/2000/svg" xmlns:ev="http://www.w3.org/2001/xml-events" xmlns:xlink="http://www.w3.org/1999/xlink"><defs /><g><path d="M130 0V436H10V554H430L398 436H298V0Z" transform="translate(0.0, 72) scale(0.072, -0.072)" /><path d="M72 0Q39 27 26.5 65.5Q14 104 14 139Q14 182 29.0 222.0Q44 262 72 281H251Q243 316 229.0 345.0Q215 374 196 398V400H395Q409 378 419.5 332.5Q430 287 430 240V0ZM259 33V205Q259 216 258.5 225.5Q258 235 257 244Q229 231 207.0 205.5Q185 180 185 142Q185 109 203.5 78.0Q222 47 259 33Z" transform="translate(30.959999999999997, 72) scale(0.072, -0.072)" /><path d="M83 0Q56 37 38.0 87.5Q20 138 20 202Q20 263 33.0 310.0Q46 357 73 400H285V399Q241 353 217.0 306.0Q193 259 193 200Q193 142 221.0 93.5Q249 45 295 2V0Z" transform="translate(64.152, 72) scale(0.072, -0.072)" /><path d="M89 0Q55 67 40.5 133.5Q26 200 26 276Q26 357 41.0 428.0Q56 499 88 554H433Q468 488 481.5 421.5Q495 355 495 278Q495 196 480.5 123.5Q466 51 434 0ZM266 32Q294 84 307.0 144.0Q320 204 320 273Q320 342 307.5 402.0Q295 462 260 516Q201 410 201 277Q201 207 216.5 146.5Q232 86 266 32Z" transform="translate(93.744, 72) scale(0.072, -0.072)" /><path d="M39 0V400H405Q432 369 447.5 315.5Q463 262 463 200V0H292V189Q292 257 270.5 299.0Q249 341 210 366V0Z" transform="translate(131.256, 72) scale(0.072, -0.072)" /><path d="M66 0Q52 22 41.5 68.0Q31 114 31 160V400H389Q422 373 434.5 335.0Q447 297 447 256Q447 219 432.0 179.0Q417 139 389 119H210Q218 83 232.5 54.0Q247 25 266 2L265 0ZM205 150Q238 165 257.0 192.5Q276 220 276 260Q276 291 257.5 322.5Q239 354 202 367V195Q202 171 205 150Z" transform="translate(166.824, 72) scale(0.072, -0.072)" /></g></svg>
